src/assets/icons/internet-communication,simple,map.svg

<svg width="48" height="48" viewBox="0 0 48 48" fill="none" xmlns="http://www.w3.org/2000/svg">
<path opacity="0.2" d="M5 13C5 9.22876 5 7.34315 6.17157 6.17157C7.34315 5 9.22876 5 13 5H35C38.7712 5 40.6569 5 41.8284 6.17157C43 7.34315 43 9.22876 43 13V35C43 38.7712 43 40.6569 41.8284 41.8284C40.6569 43 38.7712 43 35 43H13C9.22876 43 7.34315 43 6.17157 41.8284C5 40.6569 5 38.7712 5 35V13Z" fill="black"/>
<path fill-rule="evenodd" clip-rule="evenodd" d="M23.6214 35.7711C19.7476 32.9219 7.5803 11 23.9996 11C40.4188 11 28.2515 32.9218 24.3779 35.7711C24.1488 35.9396 23.8505 35.9396 23.6214 35.7711ZM23.9996 24C26.761 24 28.9996 21.7614 28.9996 19C28.9996 16.2386 26.761 14 23.9996 14C21.2381 14 18.9996 16.2386 18.9996 19C18.9996 21.7614 21.2381 24 23.9996 24Z" fill="black"/>
</svg>

<svg xmlns="http://www.w3.org/2000/svg" width="48" height="48" fill="none" viewBox="0 0 48 48">
  <path fill="#000" d="M5 13c0-3.771 0-5.657 1.172-6.828C7.343 5 9.229 5 13 5h22c3.771 0 5.657 0 6.828 1.172C43 7.343 43 9.229 43 13v22c0 3.771 0 5.657-1.172 6.828C40.657 43 38.771 43 35 43H13c-3.771 0-5.657 0-6.828-1.172C5 40.657 5 38.771 5 35V13z" opacity=".2"/>
  <path fill="#000" fill-rule="evenodd" d="M23.621 35.771C19.748 32.921 7.581 11 24 11s4.251 21.922.378 24.771a.63.63 0 01-.757 0zM24 24a5 5 0 100-10 5 5 0 000 10z" clip-rule="evenodd"/>
</svg>
